X:837
T:The Orange Rogue
N:"Collected by Cronin"
B:O'Neill's 837
Z:Transcribed by Dan G. Petersen, dangp@post6.tele.dk
M:6/8
L:1/8
K:Em
d|e/f/ge dBA|GEF G2A|BAB def|g2b agf|
e/f/ge dBA|GEF G2A|BAB dcd|e3 e2:|
f|~g2e a2f|~g2B BAB|~g2e a2f|ag3 B2d|
~g2e a2f|~g2e fed|BAB def|g2b agf:|
